X:673
T:Reel 673
L:1/8
M: 4/4
K: D Major
fBB2afed|(3BcdefedBA|(3Bcd(3efgfedf|eaaga2ag|fBB2fedB|ABBABcde|faafgbag|1faefd2fe:|2fabc'd'2|.abc